T: Plethen Peswar Luf
M: 4/4
L: 1/8
K: Dmaj
(3AAA c>e (3AAA c>e | (3BBB d>f (3BBB d>f | (3AAA c>e (3AAA c>e | B>e (3ccc (3BBB c>e |(3AAA c>e (3AAA c>e | (3BBB d>f (3BBB d>f | (3efg (3agf e>dc>B | (3Ace (3aec A2 :|
